source/images/icons/icon-utility/email.svg

<?xml version="1.0" encoding="UTF-8"?>
<svg width="24px" height="24px" viewBox="0 0 24 24" version="1.1" xmlns="http://www.w3.org/2000/svg" xmlns:xlink="http://www.w3.org/1999/xlink">
    <!-- Generator: Sketch 55.2 (78181) - https://sketchapp.com -->
    <title>Icons/24px/Email</title>
    <desc>Created with Sketch.</desc>
    <g id="Icons/24px/Email" stroke="none" stroke-width="1" fill="none" fill-rule="evenodd">
        <path d="M0.999914138,6.01224973 C0.999914138,6.00238891 0.999914138,5.99252169 0.999914138,5.98265144 C1.00944363,4.33829189 2.35350185,3 4,3 L20,3 C21.6464981,3 22.9905564,4.33829189 23.0000859,5.98265144 C23.0000859,5.99252169 23.0000859,6.00238891 23.0000859,6.01224973 L23.0000859,18 C23.0000859,19.6522847 21.6522847,21 20,21 L18,21 C17.4477153,21 17,20.5522847 17,20 C17,19.4477153 17.4477153,19 18,19 L20,19 C20.5477153,19 21,18.5477153 21,18 L21,7.92065556 L12.5734623,13.8192319 C12.2291422,14.060256 11.7708578,14.060256 11.4265377,13.8192319 L3,7.92065556 L3,18 C3,18.5477153 3.45228475,19 4,19 L14,19 C14.5522847,19 15,19.4477153 15,20 C15,20.5522847 14.5522847,21 14,21 L4,21 C2.34771525,21 0.999914138,19.6522847 0.999914138,18 L0.999914138,6.01224973 Z M20,5 L4,5 C3.61203877,5 3.27195754,5.22692322 3.10657738,5.5539486 L12,11.7793444 L20.8934226,5.5539486 C20.7280425,5.22692322 20.3879612,5 20,5 Z" id="Icon" fill="#ADB5BD"></path>
    </g>
</svg>

<svg width="24" height="24">
    <title>
        Icons/24px/Email
    </title>
    <path d="M1 6.012v-.03A3.006 3.006 0 0 1 4 3h16a3.006 3.006 0 0 1 3 2.983V18c0 1.652-1.348 3-3 3h-2a1 1 0 0 1 0-2h2c.548 0 1-.452 1-1V7.92l-8.427 5.9a1 1 0 0 1-1.146 0L3 7.92V18c0 .548.452 1 1 1h10a1 1 0 0 1 0 2H4c-1.652 0-3-1.348-3-3V6.012zM20 5H4c-.388 0-.728.227-.893.554L12 11.779l8.893-6.225A1.006 1.006 0 0 0 20 5z" fill="#ADB5BD" fill-rule="evenodd"/>
</svg>
